src/icons/service-splunk-with-name.svg

<svg width="24" height="24" viewBox="0 0 669 199" xmlns="http://www.w3.org/2000/svg" xmlns:xlink="http://www.w3.org/1999/xlink"><defs><path id="a" d="M.06.451h188.544V153.94H.06z"/></defs><g fill="none" fill-rule="evenodd"><g transform="translate(0 45)"><mask id="b" fill="#fff"><use xlink:href="#a"/></mask><path d="M71.331 75.8c0 4.445-.945 8.544-2.823 12.314-1.878 3.775-4.507 6.962-7.863 9.585-3.361 2.622-7.355 4.675-11.987 6.152-4.633 1.478-9.703 2.216-15.212 2.216-6.592 0-12.501-.9-17.733-2.71-5.24-1.804-10.48-4.782-15.713-8.94l8.658-14.089c4.168 3.485 7.925 6.046 11.279 7.655 3.356 1.614 6.787 2.415 10.286 2.415 4.294 0 7.75-1.101 10.373-3.33 2.622-2.216 3.93-5.207 3.93-8.964 0-1.615-.237-3.136-.707-4.544-.469-1.408-1.34-2.861-2.617-4.339-1.27-1.477-3.011-3.091-5.233-4.832-2.216-1.753-5.064-3.907-8.551-6.461a173.021 173.021 0 01-7.844-5.84 58.39 58.39 0 01-6.948-6.465 29.302 29.302 0 01-5.032-7.651c-1.278-2.835-1.904-6.058-1.904-9.69 0-4.163.865-7.957 2.611-11.392 1.733-3.432 4.113-6.348 7.135-8.771 3.012-2.417 6.624-4.3 10.849-5.64C30.511 1.127 35.093.451 40.051.451a55.29 55.29 0 0115.205 2.104c4.895 1.401 9.433 3.435 13.602 6.109l-7.862 12.644c-5.371-3.755-11.011-5.64-16.926-5.64-3.625 0-6.617.953-8.965 2.83-2.353 1.885-3.524 4.238-3.524 7.061 0 2.693 1.039 5.114 3.117 7.262 2.06 2.152 5.647 5.183 10.736 9.077 5.127 3.767 9.377 7.067 12.745 9.89 3.369 2.829 6.029 5.489 7.981 7.968 1.966 2.499 3.313 5.021 4.057 7.575.732 2.553 1.114 5.383 1.114 8.469M160.435 52.064c0-11.024-2.23-19.737-6.699-26.129-4.457-6.385-10.548-9.585-18.26-9.585-8.119 0-14.542 3.4-19.267 10.193-4.74 6.797-7.105 15.974-7.105 27.543 0 11.298 2.334 20.174 6.992 26.623 4.675 6.465 11.067 9.689 19.179 9.689 4.871 0 8.883-1.239 12.07-3.729 3.179-2.492 5.754-5.655 7.712-9.484 1.965-3.826 3.348-8.001 4.162-12.508.807-4.507 1.216-8.708 1.216-12.613m28.169-1.021c0 7.931-1.22 15.223-3.651 21.873-2.422 6.653-5.796 12.467-10.109 17.433-4.312 4.977-9.428 8.832-15.367 11.594-5.928 2.748-12.332 4.124-19.206 4.124-3.105 0-6.002-.27-8.702-.801a28.893 28.893 0 01-7.686-2.722c-2.423-1.286-4.815-2.93-7.168-4.953-2.36-2.015-4.819-4.507-7.38-7.462V154H83.437V2.873h25.898l.137 14.711c4.715-5.91 9.822-10.242 15.343-13.002 5.521-2.748 11.913-4.125 19.181-4.125 6.591 0 12.607 1.24 18.06 3.724 5.445 2.486 10.153 5.948 14.128 10.385 3.968 4.433 7.037 9.741 9.189 15.926 2.148 6.178 3.231 13.032 3.231 20.551" fill="#060406" mask="url(#b)"/></g><path fill="#060406" d="M200.128 148.583h26.573V.693h-26.573zM313.638 148.62l-.064-13.496c-5.113 5.652-10.364 9.72-15.742 12.213-5.384 2.491-11.649 3.724-18.774 3.724-7.944 0-14.635-1.578-20.094-4.726-5.445-3.167-9.384-7.843-11.8-14.036a21.382 21.382 0 01-1.515-4.638 72.664 72.664 0 01-.914-5.552c-.261-2.09-.438-4.477-.501-7.167-.069-2.692-.099-5.985-.099-9.892V47.722h26.573v57.73c0 5.121.237 9.008.708 11.705.475 2.692 1.319 5.121 2.534 7.262 3.099 5.659 8.577 8.481 16.402 8.481 9.989 0 16.875-4.168 20.651-12.513.945-2.154 1.621-4.538 2.026-7.168.409-2.623.609-6.352.609-11.197v-54.3h26.58V148.62h-26.58M428.263 148.576V91.003c0-5.102-.233-8.994-.708-11.674-.469-2.68-1.322-5.101-2.529-7.248-3.099-5.634-8.571-8.458-16.401-8.458-4.995 0-9.283 1.039-12.857 3.124-3.581 2.072-6.248 5.132-7.995 9.158-.958 2.285-1.595 4.732-1.927 7.349-.345 2.61-.508 6.272-.508 10.968v54.354h-26.805V47.905h26.805l.051 13.496c5.121-5.641 10.36-9.727 15.75-12.207 5.377-2.49 11.635-3.737 18.772-3.737 7.945 0 14.636 1.641 20.089 4.932 5.459 3.293 9.39 7.95 11.812 13.999a49.892 49.892 0 011.415 4.532c.413 1.551.739 3.316 1.008 5.332.274 2.015.431 4.401.506 7.155.063 2.755.1 6.073.1 9.965v57.204h-26.578M540.106 150.617l-40.087-55.606v53.59h-26.81V.724h26.81v86.831h2.818l35.655-41.303 20.145 8.669-34.248 36.665 40.501 50.366-24.784 8.665"/><path fill="#6BB04D" d="M587.901 145.846v-17.703l62.45-30.785-62.45-30.392v-18.11l80.583 40.452v16.494l-80.583 40.044"/><path d="M586.461 31.891v-.049c0-5.089 4.133-9.359 9.384-9.359a9.295 9.295 0 019.327 9.309v.05c0 5.089-4.138 9.351-9.39 9.351a9.283 9.283 0 01-9.321-9.302zm17.853-.049v-.05c0-4.683-3.643-8.501-8.469-8.501-4.865 0-8.532 3.869-8.532 8.551v.049c0 4.683 3.637 8.502 8.469 8.502 4.864 0 8.532-3.875 8.532-8.551zm-12.168-5.065h4.288c1.214 0 2.221.383 2.847 1.009.457.437.764 1.083.764 1.858v.051c0 1.552-1.025 2.479-2.473 2.817l2.968 3.85h-1.753l-2.766-3.62h-2.455v3.62h-1.42v-9.585zm4.155 4.702c1.347 0 2.28-.62 2.28-1.71v-.049c0-1.008-.826-1.653-2.198-1.653h-2.817v3.412h2.735z" fill="#060406"/></g></svg>

<svg width="24px" height="24px" viewBox="0 0 669 199" version="1.1" xmlns="http://www.w3.org/2000/svg" xmlns:xlink="http://www.w3.org/1999/xlink">
    <defs>
        <polygon id="path-1" points="0.06 0.451 188.604 0.451 188.604 153.94 0.06 153.94"></polygon>
    </defs>
    <g id="splunk-logo" stroke="none" stroke-width="1" fill="none" fill-rule="evenodd">
        <g id="Group-4" transform="translate(0.000000, 45.000000)">
            <mask id="mask-2" fill="white">
                <use xlink:href="#path-1"></use>
            </mask>
            <g id="Clip-2"></g>
            <path d="M71.331,75.8 C71.331,80.245 70.386,84.344 68.508,88.114 C66.63,91.889 64.001,95.076 60.645,97.699 C57.284,100.321 53.29,102.374 48.658,103.851 C44.025,105.329 38.955,106.067 33.446,106.067 C26.854,106.067 20.945,105.167 15.713,103.357 C10.473,101.553 5.233,98.575 0,94.417 L8.658,80.328 C12.826,83.813 16.583,86.374 19.937,87.983 C23.293,89.597 26.724,90.398 30.223,90.398 C34.517,90.398 37.973,89.297 40.596,87.068 C43.218,84.852 44.526,81.861 44.526,78.104 C44.526,76.489 44.289,74.968 43.819,73.56 C43.35,72.152 42.479,70.699 41.202,69.221 C39.932,67.744 38.191,66.13 35.969,64.389 C33.753,62.636 30.905,60.482 27.418,57.928 C24.732,56.046 22.122,54.097 19.574,52.088 C17.02,50.066 14.711,47.912 12.626,45.623 C10.548,43.343 8.877,40.79 7.594,37.972 C6.316,35.137 5.69,31.914 5.69,28.282 C5.69,24.119 6.555,20.325 8.301,16.89 C10.034,13.458 12.414,10.542 15.436,8.119 C18.448,5.702 22.06,3.819 26.285,2.479 C30.511,1.127 35.093,0.451 40.051,0.451 C45.284,0.451 50.348,1.159 55.256,2.555 C60.151,3.956 64.689,5.99 68.858,8.664 L60.996,21.308 C55.625,17.553 49.985,15.668 44.07,15.668 C40.445,15.668 37.453,16.621 35.105,18.498 C32.752,20.383 31.581,22.736 31.581,25.559 C31.581,28.252 32.62,30.673 34.698,32.821 C36.758,34.973 40.345,38.004 45.434,41.898 C50.561,45.665 54.811,48.965 58.179,51.788 C61.548,54.617 64.208,57.277 66.16,59.756 C68.126,62.255 69.473,64.777 70.217,67.331 C70.949,69.884 71.331,72.714 71.331,75.8" id="Fill-1" fill="#060406" mask="url(#mask-2)"></path>
            <path d="M160.435,52.064 C160.435,41.04 158.205,32.327 153.736,25.935 C149.279,19.55 143.188,16.35 135.476,16.35 C127.357,16.35 120.934,19.75 116.209,26.543 C111.469,33.34 109.104,42.517 109.104,54.086 C109.104,65.384 111.438,74.26 116.096,80.709 C120.771,87.174 127.163,90.398 135.275,90.398 C140.146,90.398 144.158,89.159 147.345,86.669 C150.524,84.177 153.099,81.014 155.057,77.185 C157.022,73.359 158.405,69.184 159.219,64.677 C160.026,60.17 160.435,55.969 160.435,52.064 M188.604,51.043 C188.604,58.974 187.384,66.266 184.953,72.916 C182.531,79.569 179.157,85.383 174.844,90.349 C170.532,95.326 165.416,99.181 159.477,101.943 C153.549,104.691 147.145,106.067 140.271,106.067 C137.166,106.067 134.269,105.797 131.569,105.266 C128.872,104.721 126.318,103.814 123.883,102.544 C121.46,101.258 119.068,99.614 116.715,97.591 C114.355,95.576 111.896,93.084 109.335,90.129 L109.335,154 L83.437,154 L83.437,2.873 L109.335,2.873 L109.472,17.584 C114.187,11.674 119.294,7.342 124.815,4.582 C130.336,1.834 136.728,0.457 143.996,0.457 C150.587,0.457 156.603,1.697 162.056,4.181 C167.501,6.667 172.209,10.129 176.184,14.566 C180.152,18.999 183.221,24.307 185.373,30.492 C187.521,36.67 188.604,43.524 188.604,51.043" id="Fill-3" fill="#060406" mask="url(#mask-2)"></path>
        </g>
        <polygon id="Fill-5" fill="#060406" points="200.128 148.583 226.701 148.583 226.701 0.693 200.128 0.693"></polygon>
        <path d="M313.638,148.62 L313.574,135.124 C308.461,140.776 303.21,144.844 297.832,147.337 C292.448,149.828 286.183,151.061 279.058,151.061 C271.114,151.061 264.423,149.483 258.964,146.335 C253.519,143.168 249.58,138.492 247.164,132.299 C246.488,130.829 245.981,129.277 245.649,127.661 C245.311,126.047 245.005,124.201 244.735,122.109 C244.474,120.019 244.297,117.632 244.234,114.942 C244.165,112.25 244.135,108.957 244.135,105.05 L244.135,47.722 L270.708,47.722 L270.708,105.452 C270.708,110.573 270.945,114.46 271.416,117.157 C271.891,119.849 272.735,122.278 273.95,124.419 C277.049,130.078 282.527,132.9 290.352,132.9 C300.341,132.9 307.227,128.732 311.003,120.387 C311.948,118.233 312.624,115.849 313.029,113.219 C313.438,110.596 313.638,106.867 313.638,102.022 L313.638,47.722 L340.218,47.722 L340.218,148.62 L313.638,148.62" id="Fill-6" fill="#060406"></path>
        <path d="M428.263,148.576 L428.263,91.003 C428.263,85.901 428.03,82.009 427.555,79.329 C427.086,76.649 426.233,74.228 425.026,72.081 C421.927,66.447 416.455,63.623 408.625,63.623 C403.63,63.623 399.342,64.662 395.768,66.747 C392.187,68.819 389.52,71.879 387.773,75.905 C386.815,78.19 386.178,80.637 385.846,83.254 C385.501,85.864 385.338,89.526 385.338,94.222 L385.338,148.576 L358.533,148.576 L358.533,47.905 L385.338,47.905 L385.389,61.401 C390.51,55.76 395.749,51.674 401.139,49.194 C406.516,46.704 412.774,45.457 419.911,45.457 C427.856,45.457 434.547,47.098 440,50.389 C445.459,53.682 449.39,58.339 451.812,64.388 C452.35,65.865 452.825,67.373 453.227,68.92 C453.64,70.471 453.966,72.236 454.235,74.252 C454.509,76.267 454.666,78.653 454.741,81.407 C454.804,84.162 454.841,87.48 454.841,91.372 L454.841,148.576 L428.263,148.576" id="Fill-7" fill="#060406"></path>
        <polyline id="Fill-8" fill="#060406" points="540.106 150.617 500.019 95.011 500.019 148.601 473.209 148.601 473.209 0.724 500.019 0.724 500.019 87.555 502.837 87.555 538.492 46.252 558.637 54.921 524.389 91.586 564.89 141.952 540.106 150.617"></polyline>
        <polyline id="Fill-9" fill="#6BB04D" points="587.901 145.846 587.901 128.143 650.351 97.358 587.901 66.966 587.901 48.856 668.484 89.308 668.484 105.802 587.901 145.846"></polyline>
        <path d="M586.461,31.891 L586.461,31.842 C586.461,26.753 590.594,22.483 595.845,22.483 C601.084,22.483 605.172,26.703 605.172,31.792 L605.172,31.842 C605.172,36.931 601.034,41.193 595.782,41.193 C590.543,41.193 586.461,36.982 586.461,31.891 L586.461,31.891 Z M604.314,31.842 L604.314,31.792 C604.314,27.109 600.671,23.291 595.845,23.291 C590.98,23.291 587.313,27.16 587.313,31.842 L587.313,31.891 C587.313,36.574 590.95,40.393 595.782,40.393 C600.646,40.393 604.314,36.518 604.314,31.842 L604.314,31.842 Z M592.146,26.777 L596.434,26.777 C597.648,26.777 598.655,27.16 599.281,27.786 C599.738,28.223 600.045,28.869 600.045,29.644 L600.045,29.695 C600.045,31.247 599.02,32.174 597.572,32.512 L600.54,36.362 L598.787,36.362 L596.021,32.742 L593.566,32.742 L593.566,36.362 L592.146,36.362 L592.146,26.777 Z M596.301,31.479 C597.648,31.479 598.581,30.859 598.581,29.769 L598.581,29.72 C598.581,28.712 597.755,28.067 596.383,28.067 L593.566,28.067 L593.566,31.479 L596.301,31.479 L596.301,31.479 Z" id="Fill-10" fill="#060406"></path>
    </g>
</svg>
